X: 4
T: Dinny O'Brien's
R: reel
M: 4/4
L: 1/8
K: Dmix
fd^ce d=cAB | c2 B/c/d cAGE | D2 F/E/D ADFD | E/F/G AB c2 eg |fd d/d/d dcAB | c2 Bd cAGE | DEFD E/F/G AB |1 cAGE D3 :|fed^c defg | ad^cd Ad f/e/d | egcG B/c/d ef | gcBc Gc e/f/g |1 fed^c d=cAB | c2 Bd cAGE | D2 FD E/F/G AB | cAGE D2 :|2 fd^cd AB=cA | d2 ^ce d=cGE | D2 F/E/D EFGE | cAGE D3 ||


Tune 1667	Setting 15093

